X:1
T:Title
%%score { ( 1 3 ) | ( 2 4 ) }
L:1/8
M:4/4
K:G
V:1 treble nm="Grand Piano"
V:3 treble 
V:2 bass 
V:4 bass 
V:1
 z4 z2[Q:1/4=100] [B,B]2 | [B,A]2 [B,G]2 [B,F]2 [G,B,E]2 | C4- [CD]2 D2 | E2 [CF]2 [B,G]2 B2 | %4
[M:3/4] d6 |[M:1/4] [Fd]2 |[M:4/4] e2 d2 B2 G2 | F3 E E2 =F2 | F2 B2 d2 ^cB | %9
[M:7/8] [^CGB]3 [CGA] [=CFA]3 |[M:1/4] _B2 |[M:4/4] B2 G2 F2 E2 | E4 ^D2 D2 | D2 D2 E2 F2 | %14
[M:7/8] F- F3 [B,G]3 |] %15
V:2
 z4 z2 [G,,G,]2 | [G,,D,]2 [G,,D,]2 [G,,E,]2 G,,2 | z4 F,2 [C,F,A,]2 | %3
 [B,,G,B,]2 [A,,D,]2 [G,,D,]2[K:treble] [G,D]2 |[M:3/4] [^G,B,=F]4[K:bass] [A,C]2 |[M:1/4] [D,C]2 | %6
[M:4/4][K:treble] [G,B,G]2 [G,B,G]2 [G,DG]2 [G,B,D]2 | %7
 [G,B,D]3[K:bass] [G,B,D] [G,B,D]2 [G,B,^C]2 | z4 z2 .E2 |[M:7/8] E,3 A,, D,3 |[M:1/4] [F,CD]2 | %11
[M:4/4] [G,B,D]2 [G,B,D]2 [D,G,B,]2 [D,G,B,]2 | G,6 z2 | [D,B,]2 [D,E,B,]2 [D,B,D]2 [D,A,C]2 | %14
[M:7/8] [D,A,C]- [D,A,C]3 [G,,G,]3 |] %15
V:3
 x8 | x8 | [G,E]4 z4 | x8 |[M:3/4] z2 z2 F2 |[M:1/4] x2 |[M:4/4] x8 | x8 | x8 |[M:7/8] x7 | %10
[M:1/4] x2 |[M:4/4] x8 | x8 | x8 |[M:7/8] x7 |] %15
V:4
 x8 | x8 | A,,6 z2 | x6[K:treble] x2 |[M:3/4] x4[K:bass] x2 |[M:1/4] x2 |[M:4/4][K:treble] x8 | %7
 x3[K:bass] x5 | [F,B,D]2 [F,DF]2 [F,B,F]2 [F,F]-[F,DF] |[M:7/8] x7 |[M:1/4] x2 |[M:4/4] x8 | %12
 [^C,_B,]4 [C,B,]2 [C,G,B,]2 | x8 |[M:7/8] x7 |] %15

